slides/assets/games_intro/chapter_game.svg

<?xml version="1.0" encoding="UTF-8"?>
<svg width="653.63" height="305.06" version="1.1" viewBox="0 0 172.94 80.715" xmlns="http://www.w3.org/2000/svg" xmlns:cc="http://creativecommons.org/ns#" xmlns:dc="http://purl.org/dc/elements/1.1/" xmlns:rdf="http://www.w3.org/1999/02/22-rdf-syntax-ns#">
 <metadata>
  <rdf:RDF>
   <cc:Work rdf:about="">
    <dc:format>image/svg+xml</dc:format>
    <dc:type rdf:resource="http://purl.org/dc/dcmitype/StillImage"/>
    <dc:title/>
   </cc:Work>
  </rdf:RDF>
 </metadata>
 <g transform="matrix(7.2627 0 0 7.2627 -682.16 -695.34)" stroke-width=".13769">
  <rect x="94.208" y="96.454" width="23.308" height="9.7115" fill="#1d232d" style="paint-order:normal"/>
  <g fill="#7b8694">
   <path d="m94.596 96.26h1.1654v0.19408h-1.1654z"/>
   <path d="m96.538 96.26h1.1654v0.19408h-1.1654z"/>
   <path d="m98.481 96.26h1.1654v0.19408h-1.1654z"/>
   <path d="m100.42 96.26h1.1654v0.19408h-1.1654z"/>
   <path d="m102.37 96.26h1.1654v0.19408h-1.1654z"/>
   <path d="m104.31 96.26h1.1654v0.19408h-1.1654z"/>
   <path d="m106.25 96.26h1.1654v0.19408h-1.1654z"/>
   <path d="m108.19 96.26h1.1654v0.19408h-1.1654z"/>
   <path d="m110.13 96.26h1.1654v0.19408h-1.1654z"/>
   <path d="m112.08 96.26h1.1654v0.19408h-1.1654z"/>
   <path d="m114.02 96.26h1.1654v0.19408h-1.1654z"/>
   <path d="m115.96 96.26h1.1654v0.19408h-1.1654z"/>
   <path d="m115.96 106.17h1.1654v0.19405h-1.1654z"/>
   <path d="m114.02 106.17h1.1654v0.19405h-1.1654z"/>
   <path d="m112.08 106.17h1.1654v0.19405h-1.1654z"/>
   <path d="m110.13 106.17h1.1654v0.19405h-1.1654z"/>
   <path d="m108.19 106.17h1.1654v0.19405h-1.1654z"/>
   <path d="m106.25 106.17h1.1654v0.19405h-1.1654z"/>
   <path d="m104.31 106.17h1.1654v0.19405h-1.1654z"/>
   <path d="m102.37 106.17h1.1654v0.19405h-1.1654z"/>
   <path d="m100.42 106.17h1.1654v0.19405h-1.1654z"/>
   <path d="m98.481 106.17h1.1654v0.19405h-1.1654z"/>
   <path d="m96.538 106.17h1.1654v0.19405h-1.1654z"/>
   <path d="m94.596 106.17h1.1654v0.19405h-1.1654z"/>
  </g>
  <g transform="matrix(.99998 0 0 .99998 -.012983 .15008)" stroke-width=".13769">
   <circle cx="101.55" cy="101.18" r="1.4248" fill="#e9e56f"/>
   <rect x="108.68" y="99.755" width="2.8497" height="2.8497" fill="#2c57df"/>
   <path d="m104.4 102.4 1.4248-2.4679 1.4248 2.4679z" fill="#cf2f25"/>
  </g>
 </g>
</svg>

<?xml version="1.0" encoding="UTF-8" standalone="no"?>
<svg
   xmlns:dc="http://purl.org/dc/elements/1.1/"
   xmlns:cc="http://creativecommons.org/ns#"
   xmlns:rdf="http://www.w3.org/1999/02/22-rdf-syntax-ns#"
   xmlns:svg="http://www.w3.org/2000/svg"
   xmlns="http://www.w3.org/2000/svg"
   xmlns:sodipodi="http://sodipodi.sourceforge.net/DTD/sodipodi-0.dtd"
   xmlns:inkscape="http://www.inkscape.org/namespaces/inkscape"
   inkscape:version="1.0rc1 (09960d6f05, 2020-04-09)"
   sodipodi:docname="chapter_game.svg"
   id="svg66"
   viewBox="0 0 169.27686 73.382683"
   version="1.1"
   height="277.34772"
   width="639.7851">
  <defs
     id="defs70" />
  <sodipodi:namedview
     inkscape:current-layer="svg66"
     inkscape:window-maximized="1"
     inkscape:window-y="-8"
     inkscape:window-x="-8"
     inkscape:cy="86.690928"
     inkscape:cx="330.05291"
     inkscape:zoom="0.72212107"
     showgrid="false"
     id="namedview68"
     inkscape:window-height="1377"
     inkscape:window-width="2560"
     inkscape:pageshadow="2"
     inkscape:pageopacity="0"
     guidetolerance="10"
     gridtolerance="10"
     objecttolerance="10"
     borderopacity="1"
     bordercolor="#666666"
     pagecolor="#ffffff" />
  <metadata
     id="metadata2">
    <rdf:RDF>
      <cc:Work
         rdf:about="">
        <dc:format>image/svg+xml</dc:format>
        <dc:type
           rdf:resource="http://purl.org/dc/dcmitype/StillImage" />
        <dc:title />
      </cc:Work>
    </rdf:RDF>
  </metadata>
  <g
     id="g64"
     stroke-width="0.13769"
     transform="matrix(7.2627,0,0,7.2627,-684.20554,-699.1075)">
    <rect
       id="rect4"
       style="paint-order:normal"
       fill="#1d232d"
       height="9.7115002"
       width="23.308001"
       y="96.454002"
       x="94.208" />
    <g
       id="g54"
       fill="#7b8694">
      <path
         inkscape:connector-curvature="0"
         id="path6"
         d="m 94.596,96.26 h 1.1654 v 0.19408 H 94.596 Z" />
      <path
         inkscape:connector-curvature="0"
         id="path8"
         d="m 96.538,96.26 h 1.1654 v 0.19408 H 96.538 Z" />
      <path
         inkscape:connector-curvature="0"
         id="path10"
         d="m 98.481,96.26 h 1.1654 v 0.19408 H 98.481 Z" />
      <path
         inkscape:connector-curvature="0"
         id="path12"
         d="m 100.42,96.26 h 1.1654 v 0.19408 H 100.42 Z" />
      <path
         inkscape:connector-curvature="0"
         id="path14"
         d="m 102.37,96.26 h 1.1654 v 0.19408 H 102.37 Z" />
      <path
         inkscape:connector-curvature="0"
         id="path16"
         d="m 104.31,96.26 h 1.1654 v 0.19408 H 104.31 Z" />
      <path
         inkscape:connector-curvature="0"
         id="path18"
         d="m 106.25,96.26 h 1.1654 v 0.19408 H 106.25 Z" />
      <path
         inkscape:connector-curvature="0"
         id="path20"
         d="m 108.19,96.26 h 1.1654 v 0.19408 H 108.19 Z" />
      <path
         inkscape:connector-curvature="0"
         id="path22"
         d="m 110.13,96.26 h 1.1654 v 0.19408 H 110.13 Z" />
      <path
         inkscape:connector-curvature="0"
         id="path24"
         d="m 112.08,96.26 h 1.1654 v 0.19408 H 112.08 Z" />
      <path
         inkscape:connector-curvature="0"
         id="path26"
         d="m 114.02,96.26 h 1.1654 v 0.19408 H 114.02 Z" />
      <path
         inkscape:connector-curvature="0"
         id="path28"
         d="m 115.96,96.26 h 1.1654 v 0.19408 H 115.96 Z" />
      <path
         inkscape:connector-curvature="0"
         id="path30"
         d="m 115.96,106.17 h 1.1654 v 0.19405 H 115.96 Z" />
      <path
         inkscape:connector-curvature="0"
         id="path32"
         d="m 114.02,106.17 h 1.1654 v 0.19405 H 114.02 Z" />
      <path
         inkscape:connector-curvature="0"
         id="path34"
         d="m 112.08,106.17 h 1.1654 v 0.19405 H 112.08 Z" />
      <path
         inkscape:connector-curvature="0"
         id="path36"
         d="m 110.13,106.17 h 1.1654 v 0.19405 H 110.13 Z" />
      <path
         inkscape:connector-curvature="0"
         id="path38"
         d="m 108.19,106.17 h 1.1654 v 0.19405 H 108.19 Z" />
      <path
         inkscape:connector-curvature="0"
         id="path40"
         d="m 106.25,106.17 h 1.1654 v 0.19405 H 106.25 Z" />
      <path
         inkscape:connector-curvature="0"
         id="path42"
         d="m 104.31,106.17 h 1.1654 v 0.19405 H 104.31 Z" />
      <path
         inkscape:connector-curvature="0"
         id="path44"
         d="m 102.37,106.17 h 1.1654 v 0.19405 H 102.37 Z" />
      <path
         inkscape:connector-curvature="0"
         id="path46"
         d="m 100.42,106.17 h 1.1654 v 0.19405 H 100.42 Z" />
      <path
         inkscape:connector-curvature="0"
         id="path48"
         d="m 98.481,106.17 h 1.1654 v 0.19405 H 98.481 Z" />
      <path
         inkscape:connector-curvature="0"
         id="path50"
         d="m 96.538,106.17 h 1.1654 v 0.19405 H 96.538 Z" />
      <path
         inkscape:connector-curvature="0"
         id="path52"
         d="m 94.596,106.17 h 1.1654 v 0.19405 H 94.596 Z" />
    </g>
    <g
       id="g62"
       stroke-width="0.13769"
       transform="matrix(0.99998,0,0,0.99998,-0.012983,0.15008)">
      <circle
         id="circle56"
         fill="#e9e56f"
         r="1.4248"
         cy="101.18"
         cx="101.55" />
      <rect
         id="rect58"
         fill="#2c57df"
         height="2.8497"
         width="2.8497"
         y="99.754997"
         x="108.68" />
      <path
         inkscape:connector-curvature="0"
         id="path60"
         fill="#cf2f25"
         d="m 104.4,102.4 1.4248,-2.4679 1.4248,2.4679 z" />
    </g>
  </g>
</svg>
